X:1
T:Iltapilviä
T:Iltapilviä
T:Op. 27, no 5
T:Toivo Kuula (1914)
T:Veikko Antero Koskenniemi
T:NSSS 2011
T:NSSS 2011
T:NSSS 2011
T:NSSS 2011
C:Tovo Kuula (1914)
Z:Veikko Antero Koskenniemi
Z:NSSS 2011
%%score [ 1 2 3 4 ]
L:1/8
Q:1/4=70
M:4/4
K:Db
V:1 treble-8 nm="T1"
V:2 treble-8 nm="T2"
V:3 bass nm="B1"
V:4 bass nm="B2"
V:1
 z8 | z8 | z4!p! f f e d | e2 F c d2 c B | c c !breath!d e"^cresc." f2 d f |!f! a4 g2 c2 | %6
w: ||pu- na- viit- ta-|ur- ho- ja kun- ni- a-|vah- dis- sa ylt' ym- pä- ri|kuo- le- van|
"^dim." f6 f2 |!>(! f4!>)! !fermata!z2!p![Q:1/4=35]"^Grave" e e | d2 c d c2 B c | B3 =A A2 c c | %10
w: au- rin-|gon. Su- ru-|mars- sin, mun kai- puu- ni|soit- ta- man, su- ru-|
!<(! d2 c c!<)! !>!f2 d B | d3 c c2 d e | !>!f2 B2 d c c d | (!>!e B) B c d2 c B | %14
w: mars- sin, mun kai- puu- ni|soit- ta- man, su- ru-|mars- sin tah- dis- sa ne|li- e- hu- vat lip- pun- sa|
!>(! !>!=A4 A3 B | !>!B4!>)! z4 | z4!f! G B f2- | f e d2 c2 d e | %18
w: paa- rei- le|tuo.|E- lon ruh-|* ti- nas vii- mei- sen|
[M:6/4] f2 d f!<(! =g4!<)! f f e e |[M:4/4]!f! a6 e2 |"^cresc." (3g2 f2 e2 d2 e2 |!ff! [df]4 z4 | %22
w: lois- ton- sa mah- dis- sa y- li|mai- ten|ku- nin- gas- kat- seen|luo:|
 z!f! d e f z e f g | f3 e d4 | z =d e f z e f g | a3 d !breath!d2 e f |!ff! g2 f f e e z d | %27
w: Te u- net, te pil- vet|sam- mu- kaa,|te u- net, te pil- vet|sam- mu- kaa. Nyt on|laan- ne- het i- lot ja|
 f3 B B2"^accel." c2 | d c2 e f2 B2 |!fff! !>!b2"^molto tenuto" f f !>!_a !>!g !>!!breath!f !>!e | %30
w: tais- te- lot. Te|tu- let- te myö- hään,|kuo- le- man ra- ja- la. Yö|
"^a tempo" d2 c2 !>!f d2 B |"^poco a poco dim." d2 c2 c2 d e | f2 B2 d c2 d | c6!p! B2 | %34
w: nos- ta i- kuis- ta|val- tik- kaa, y- ö|nos- taa i- kuis- ta|val- tik-|
!>(! !fermata!=A4!>)! !fermata!z2 z!pp! F | B B z F G2 D2 |!>(! F3 B,!>)! B,4 |] %37
w: kaa. Jo|u- net, jo pil- vet|sam- mu- kaa!|
V:2
 z8 | z8 | z4!p! d d c B | =A2 A A B2 c B | A A !breath!B c"^cresc." d2 c _c |!f! B4 B2 B2 | %6
w: ||pu- na- viit- ta-|ur- ho- ja kun- nu- a-|vah- dis- sa ylt' ym- pä- ri|kuo- le- van|
"^dim." =A6 A2 |!>(! B4!>)! !fermata!z2!p! B B | =A2 A A F2 F F | G3 G G2 B B | %10
w: au- rin-|gon. Su- ru-|mars- sin, mun kai- puu- ni|soit- ta- man, su- ru-|
!<(! =A2 A A!<)! !>!B2 B F | =A3 A A2 A A | !>!B2 F2 =A A A A | (B B) B B B2 A G |!>(! !>!F4 F3 F | %15
w: mars- sin, mun kai- puu- ni|soit- ta- man, su- ru-|mars- sin tah- dis- sa ne|li- e- hu- vat lip- pun- sa|paa- rei- le|
 !>!G4!>)! z4 | z4!f! G B f2- | f e d2 c2 B c |[M:6/4] d2 A d!<(! d4!<)! d d d d | %19
w: tuo.|E- lon ruh-|* ti- nas vii- mei- sen|lois- ton- sa mah- dis- sa y- li|
[M:4/4]!f! c6 c2 |"^cresc." (3e2 d2 _c2 B2 B2 |!ff! [Ad]4 z4 | z!f! B c d z c c d | =A3 A B4 | %24
w: mai- ten|ku- nin- gas- kat- seen|luo:|Te u- net, te pil- vet|sam- mu- kaa,|
 z B c =d z c c c | c3 d !breath!d2 c d |!ff! B2 d c B B z B | c3 B =E2 B2 | B =A2 A B2 B2 | %29
w: te u- net, te pil- vet|sam- mu- kaa. Nyt on|laan- ne- het i- lot ja|tais- te- lot. Te|tu- let- te myö- hään,|
!fff! !>!=d2 d d !>!c !>!c !>!!breath!_d !>!e | d2 =A2 !>!B B2 F | %31
w: kuo- le- man ra- ja- la. Yö|nos- ta i- kuis- ta|
"^poco a poco dim." =A2 A2 A2 A A | B2 F2 =A A2 A | F6!p! F2 | %34
w: val- tik- kaa, y- ö|nos- taa i- kuis- ta|val- tik-|
!>(! !fermata!=E4!>)! !fermata!z2 z!pp! F | B B z F G2 D2 |!>(! F3 B,!>)! B,4 |] %37
w: kaa. Jo|u- net, jo pil- vet|sam- mu- kaa!|
V:3
 z2!p! F,2 (3F,2 F,2 F,2 | F,3 B,, D,2 C, E, | F,8- | F,2 z2 G,2 G, G, | %4
w: Mun u- ne- ni|il- ta- pil- vi- ä|on,|* kun- ni- a-|
 G, G, !breath!G, G,"^cresc." F,2 F, F, |!f! =E,4 E,2 E,2 |"^dim." _E,6 E,2 | %7
w: vah- dis- sa ylt' ym- pä- ri|kuo- le- van|au- rin-|
!>(! =D,4!>)! !fermata!z2!p! G, G, | E,2 E, E, D,2 D, D, | E,3 E, E,2 G, G, | %10
w: gon. Su- ru-|mars- sin, mun kai- puu- ni|soit- ta- man, su- ru-|
!<(! F,2 E, E,!<)! !>!D,2 F, D, | E,3 G, E,2 G, G, | !>!F,2 D,2 G, G, G, G, | %13
w: mars- sin, mun kai- puu- ni|soit- ta- man, su- ru-|mars- sin tah- dis- sa ne|
 (G, G,) G, G, F,2 E, D, |!>(! !>!C,4 C,3 B,, | !>!B,,4!>)! z4 |!f! G,, B,, F,3 E, D,2 | %17
w: li- e- hu- vat lip- pun- sa|paa- rei- le|tuo.|E- lon ruh- ti- nas|
 C,2 D, E, F,2 G, G, |[M:6/4] F,2 F, [B,,A,]!<(! [B,,=G,]4!<)! [E,A,] [E,A,] [E,G,] [E,G,] | %19
w: vii- mei- sen lois- ton- sa|lois- ton- sa mah- dis- sa y- li|
[M:4/4]!f! [E,A,]6 A,2 |"^cresc." (3[G,B,]2 [F,A,]2 [E,G,]2 [D,G,]2 [B,,G,]2 |!ff! [D,F,]4 z4 | %22
w: mai- ten|ku- nin- gas- kat- seen|luo:|
 z!f! B, B, B, z B, B, B, | G,3 G, F,4 | z B, B, B, z B, B, B, | __B,3 B, !breath!A,2 F, F, | %26
w: Te u- net, te pil- vet|sam- mu- kaa,|te u- net, te pil- vet|sam- mu- kaa. Nyt on|
!ff! E,2 B, A, G, G, z G, | F,3 F, C,2 =E,2 | F, F,2 F, F,2 D,2 | %29
w: laan- ne- het i- lot ja|tais- te- lot. Te|tu- let- te myö- hään,|
!fff! !>!F,2 A, A, !>!=A, !>!A, !>!!breath!B, !>!B, | F,2 F,2 !>!D, F,2 D, | %31
w: kuo- le- man ra- ja- la. Yö|nos- ta i- kuis- ta|
"^poco a poco dim." G,2 E,2 E,2 G, G, | F,2 D,2 G, G,2 E, | D,6!p! D,2 | %34
w: val- tik- kaa, y- ö|nos- taa i- kuis- ta|val- tik-|
!>(! !fermata!C,4!>)! !fermata!z2 z!pp! F, | B, B, z F, G,2 D,2 |!>(! F,3 B,,!>)! B,,4 |] %37
w: kaa. Jo|u- net, jo pil- vet|sam- mu- kaa!|
V:4
 z8 | z8 | z4!p! F, F, F, F, | F,2 F, F, E,2 E, E, | A,, A,, !breath!A,, A,,"^cresc." D,2 D, D, | %5
w: ||pu- na- viit- ta-|ur- ho- ja kun- ni- a-|vah- dis- sa ylt' ym- pä- ri|
!f! C,4 C,2 C,2 |"^dim." F,,4 _C,4 |!>(! B,,4!>)! !fermata!z2!p! C, C, | E,2 F,,2 F,2 F,,2 | %9
w: kuo- le- van|au- rin-|gon. Su- ru-|mars- sin, kai- puun|
 C,2 F,,2 F,,2 E, E, |!<(! E,2 F,,2!<)! !>!F,2 F,,2 | E,2 F,,2 F,,2 E, E, | %12
w: soit- ta- man, su- ru-|mars- sin, kai- puun|soit- ta- man, su- ru-|
 !>!D,2 F,,2 E, E, E, D, | (C,2 F,,2) B,,2 F,,2 |!>(! !>!F,,4 F,,3 F,, | E,,4!>)! z4 | %16
w: mars- sin tah- dis- sa ne|lip- * pun- sa|paa- rei- le|tuo.|
!f! G,, B,, F,3 E, D,2 | C,2 D, E, F,2 E, A,, |[M:6/4] D,2 C, B,,!<(! [E,,B,,]4!<)! E, E, E, E, | %19
w: E- lon ruh- ti- nas|vii- mei- sen lois- ton- sa|lois- ton- sa mah- dis- sa y- li|
[M:4/4]!f! [A,,E,]6 A,2 |"^cresc." (3E,2 D,2 _C,2 G,,2 [E,,B,,]2 |!ff! [D,,A,,]4 z2 F,2 | %22
w: mai- ten|ku- nin- gas- kat- seen|luo: Te|
 B, B, z F, G,3 D, | F, B,, B,,2 z2 F,2 | B, B,2 F, G,2 E, E, | A,3 E, F, D, !breath!C,!ff! B,, | %26
w: u- net, te pil- vi-|u- ro- hot, miss'|o- lit- te tais- ton ja|voi- man a- jal- la. Jo|
 E, E, z B,, C,2 A,,2 | D,3/2 G,,/ G,,4 z G,, | F,, F,, z C, D,2 F,2 |!fff! !>!_C3 A, E,2 z G, | %30
w: u- net, jo pil- vet|sam- mu- kaa jo|u- net, jo pil- vet|sam- mu- kaa, jo|
 F,3/2 D,/ F,,2 !>!D,3/2 B,,/ F,,2 |"^poco a poco dim." E,3/2 C,/ F,,2 G,3/2 E,/ F,,2 | %32
w: sam- mu- kaa, sam- mu- kaa,|sam- mu- kaa, sam- mu- kaa,|
 D,3/2 B,,/ F,,2 E,3/2 C,/ F,,2 | F,3/2 D,/ F,,2 F,,2!p! F,,2 | %34
w: sam- mu- kaa, sam- mu- kaa,|sam- mu- kaa pil- vet|
!>(! !fermata!G,,4!>)! !fermata!z2 z!pp! F,, | B,, B,, z F,, G,,2 D,,2 | %36
w: pois. Jo|u- net, jo pil- vet|
!>(! F,,3 [B,,,B,,]!>)! [B,,,B,,]4 |] %37
w: sam- mu- kaa!|

